X:34
T:Kuna Mina Koto Ani Laksin  (When I left home)
M:2/4
L:1/16
Q:1/4=80
S:arr. Eira Mattsson (Washington DC Finlandia Society) ~1976
R:jenkka
K:Am
"Am" A,2A,A, CCEE | A4 A2B2 | "Dm" c2AA A2F2 | "Am" E4 z4 | !
"Am" A,2A,A, CCEE | A4 A2B2 | "Dm" c2AA A2F2 | "Am" E4 z2 E2 | !
"Dm" G2GG DDDF | "Am" A2A2 E2ED | C2CC "E7" B,2B,2 | "Am" A,4 z2 E2 | !
"Dm" G2GG DDDF | "Am" A2A2 E2ED | C2CC "E7" B,2B,2 | "Am" A,2A,2 A,2 z2 ||
